X:641
T:Miss Hog, Newliston
R:Reel
B:The Athole Collection
M:C|
L:1/8
K:G Minor
A|BdAc BGGA|BGcB AFFA|BdAc BGgd|ecAd BGG:|
A|BdcB fdcB|AFcF dFcF|BdAc BGga|bag^f g/g/g ga|bag^f g=fed|
ecdB AFcA|BGcA dBec|dba^f g<(GG)||

